bag-carry-on-check.svg

<svg fill="currentColor" viewBox="0 0 24 24"><path d="m15.28 16.69 2.86-2.81.7.7-3.56 3.56L13.17 16l.71-.72zM8 21a2 2 0 0 1-2-2V9a2 2 0 0 1 2-2zM9 7h5V4a2 2 0 0 1-2-2h4v8a6 6 0 0 1 6 6 6 6 0 0 1-6 6c-1.23 0-2.37-.37-3.32-1H9zm7 5a4 4 0 0 0-4 4 4 4 0 0 0 4 4 4 4 0 0 0 4-4 4 4 0 0 0-4-4"/></svg>

<svg  viewBox="0 0 24 24" fill="currentColor"><path  d="M15.28,16.69L18.14,13.88L18.84,14.58L15.28,18.14L13.17,16L13.88,15.28L15.28,16.69M8,21A2,2 0 0,1 6,19V9A2,2 0 0,1 8,7V21M9,7H14V4A2,2 0 0,1 12,2H16V10A6,6 0 0,1 22,16A6,6 0 0,1 16,22C14.77,22 13.63,21.63 12.68,21H9V7M16,12A4,4 0 0,0 12,16A4,4 0 0,0 16,20A4,4 0 0,0 20,16A4,4 0 0,0 16,12Z"/></svg>
